!!!COM: Bach, Johann Sebastian
!!!OPR: Joh. Seb. Bachs vierstimmige Choralgesänge
!!!XEN: Four-part Chorales
!!!OTL: Chorale 58. Es woll' uns Gott genädig sein
!!!SCT: BWV 311
!!!SCA: Thematisch-systematisches Verzeichnis der musikalischen Werke Johann Sebastian Bach: Bach-Werke-Verzeichnis (Schmieder)
!!!YOR: Bach Gesellschaft Edition xxxix
!!!ENC: Steven Rasmussen
!!!CDT: 1685/3//-1750/7/28/
!!!OCY: Deutschland
!!!YEC: Copyright (c) 1994, 2000 Center for Computer Assisted Research in the Humanities
!!!YEM: Rights to all derivative editions reserved
!!!YEN: United States of America
**kern	**silbe	**kern	**silbe	**kern	**silbe	**kern	**silbe
*I:[BASSO]	*I:[BASSO]	*I:[TENORE]	*I:[TENORE]	*I:[ALTO]	*I:[ALTO]	*I:[SOPRANO]	*I:[SOPRANO]
*>[A,A,B]	*	*>[A,A,B]	*	*>[A,A,B]	*	*>[A,A,B]	*
*>A	*	*>A	*	*>A	*	*>A	*
*clefF4	*	*clefGv2	*	*clefG2	*	*clefG2	*
*k[f#c#]	*	*k[f#c#]	*	*k[f#c#]	*	*k[f#c#]	*
*b:	*	*b:	*	*b:	*	*b:	*
*M4/4	*	*M4/4	*	*M4/4	*	*M4/4	*
4F#	.	4A#	.	4f#	.	4cc#	Essein
=1	=1	=1	=1	=1	=1	=1	=1
4B	.	4B	.	4f#	.	4dd	woll'Ant-
4A	.	8c#L	.	4f#	.	4cc#	uns-litz
.	.	8dJ	.	.	.	.	.
4G	.	4e	.	4g	.	4b	Gottuns
4F#	.	4A	.	4a	.	8cc#L	ge-mit
.	.	.	.	.	.	8ddJ	.
=2	=2	=2	=2	=2	=2	=2	=2
4E	.	8BL	.	4g	.	4ee	-nä-hel-
.	.	8c#J	.	.	.	.	.
4D	.	4d	.	8f#L	.	4ff#	.
.	.	.	.	8g#J	.	.	.
4C#	.	4e	.	4a#	.	4ee	.
4BB	.	4f#	.	4b	.	4dd	-dig-lem
=3	=3	=3	=3	=3	=3	=3	=3
2F#;	.	2f#;	.	2a#;	.	2cc#;	seinSchein
4r	.	4r	.	4r	.	4r	.
4A#	.	4f#	.	4cc#	.	4ee	under-
=4	=4	=4	=4	=4	=4	=4	=4
4B	.	4f#	.	8bL	.	4dd	sei--leucht'
.	.	.	.	8aJ	.	.	.
4E	.	4e	.	4g	.	4cc#	-nenzum
4F#	.	4d	.	4a	.	4dd	Se-ew'-
4G	.	4d	.	8gL	.	4b	-gen-gen
.	.	.	.	8f#J	.	.	.
=5	=5	=5	=5	=5	=5	=5	=5
4C#	.	4e	.	4e	.	4a	ge-Le-
4D	.	8AL	.	8dL	.	8f#L	.
.	.	8BJ	.	8eJ	.	8gJ	.
4D#	.	4cn	.	4f#	.	4a	.
4E	.	4B	.	8eL	.	4g	.
.	.	.	.	8dJ	.	.	.
=6	=6	=6	=6	=6	=6	=6	=6
2.F#;	.	2.A#;	.	2.c#;	.	2.f#;	-ben;-ben,
=:|!	=:|!	=:|!	=:|!	=:|!	=:|!	=:|!	=:|!
*>B	*	*>B	*	*>B	*	*>B	*
4F#	.	4An	.	4c#	.	4a	dass
=7	=7	=7	=7	=7	=7	=7	=7
8BBL	.	4B	.	4d	.	4g	wir
8C#J	.	.	.	.	.	.	.
4D	.	4A	.	4d	.	4f#	er-
4AA	.	8AL	.	4c#	.	4e	-ken-
.	.	8GJ	.	.	.	.	.
4AA#	.	4F#	.	4c#	.	4f#	-nen
=8	=8	=8	=8	=8	=8	=8	=8
4BB	.	4F#	.	8dL	.	4d	sei-
.	.	.	.	8c#J	.	.	.
4GG	.	4B	.	4B	.	4e	-ne
4FF#;	.	4A#;	.	4c#;	.	4f#;	Werk'
4F#	.	4A#	.	4f#	.	4cc#	und,
=9	=9	=9	=9	=9	=9	=9	=9
4B	.	4B	.	8f#L	.	4dd	was
.	.	.	.	8g#J	.	.	.
4c#	.	4e	.	4a#	.	4cc#	ihn
4d	.	4f#	.	4b	.	4b	liebt,
8c#L	.	8eL	.	8a#L	.	8cc#L	auf
8BJ	.	8dJ	.	8bJ	.	8ddJ	.
=10	=10	=10	=10	=10	=10	=10	=10
4A#	.	4c#	.	8cc#L	.	4ee	Er-
.	.	.	.	[8f#J	.	.	.
4B	.	4B	.	4f#]	.	4dd	.
4F#;	.	4A#;	.	4f#;	.	4cc#;	-den,
4D#	.	4B	.	4a	.	4ff#	und
=11	=11	=11	=11	=11	=11	=11	=11
4E	.	4B	.	4g#	.	8eeL	Je-
.	.	.	.	.	.	8ddJ	.
4F#	.	4A	.	4a	.	8cc#L	-sus
.	.	.	.	.	.	8ddJ	.
8G#L	.	8BL	.	4e	.	4ee	Chri-
8F#J	.	8AJ	.	.	.	.	.
8EL	.	4G#	.	4e	.	4b	-stus
8DJ	.	.	.	.	.	.	.
=12	=12	=12	=12	=12	=12	=12	=12
8C#L	.	4A	.	8eL	.	4a	Heil
8BBJ	.	.	.	8dJ	.	.	.
8C#L	.	4A	.	8eL	.	4g	und
8AAJ	.	.	.	8c#J	.	.	.
4D;	.	4A;	.	4d;	.	4f#;	Stärk'
8AL	.	4A	.	4c#	.	4e	be-
8G#J	.	.	.	.	.	.	.
=13	=13	=13	=13	=13	=13	=13	=13
4F#	.	4A	.	8c#L	.	4a	-kannt
.	.	.	.	8d#J	.	.	.
8EL	.	4G#	.	4e	.	4b	den
8DJ	.	.	.	.	.	.	.
8C#L	.	8A#L	.	8eL	.	8cc#L	Hei-
8BBJ	.	8BJ	.	8f#J	.	8ddJ	.
4AA#	.	4c#	.	8gL	.	4ee	-den
.	.	.	.	8f#J	.	.	.
=14	=14	=14	=14	=14	=14	=14	=14
4BB	.	8c#L	.	8f#L	.	4dd	wer-
.	.	8BJ	.	8g#J	.	.	.
8C#L	.	4e	.	4a	.	4cc#	.
8D#J	.	.	.	.	.	.	.
4E;	.	4e;	.	4g#;	.	4b;	-den
8F#L	.	8AL	.	4f#	.	4dd	und
8G#J	.	8BJ	.	.	.	.	.
=15	=15	=15	=15	=15	=15	=15	=15
4A	.	4c#	.	8eL	.	4cc#	sie
.	.	.	.	8f#J	.	.	.
8BL	.	4d	.	4g	.	4b	zu
8c#J	.	.	.	.	.	.	.
4d	.	4d	.	8f#L	.	8aL	Gott
.	.	.	.	8eJ	.	8gJ	.
4D	be-	4A	be-	4d	be-	8f#L	be-
.	.	.	.	.	.	8gJ	.
=16	=16	=16	=16	=16	=16	=16	=16
4Cn	-keh-	4A	-keh-	2.e	-keh-	4a	-keh-
4BB	.	4B	.	.	.	4g	.
4AA#	.	4c#	.	.	.	[2f#	-ren.
4BB	.	[4B	.	[4d	.	.	.
=17	=17	=17	=17	=17	=17	=17	=17
2.FF#;	-ren.	4B]	.	4d]	.	2.f#;]	.
.	.	8A#L	.	8c#L	.	.	.
.	.	8G#J	.	8BJ	.	.	.
.	.	4A#;	-ren.	4c#;	-ren.	.	.
==|!	==|!	==|!	==|!	==|!	==|!	==|!	==|!
*-	*-	*-	*-	*-	*-	*-	*-
!!!RWG: Key is interpreted using the Humdrum key tool.
!!!URL-pdf: https://s9.imslp.org/files/imglnks/usimg/6/6b/IMSLP24489-PMLP09471-CCARH_Bach_Chorales.pdf#page=40 Musedata edition
!!!URL-pdf: https://s9.imslp.org/files/imglnks/usimg/7/7a/IMSLP04155-Bach_-_BGA_253-438.pdf#page=31 	Bach-Gesellschaft Ausgabe, Band 39 (pp.175-276) Leipzig: Breitkopf und Härtel, 1892. Plate B.W. XXXIX.
!!!END: 1994/05/25
!!!EMD: Converted from MuseData to Humdrum Dec 19, 2000, by Andreas Kornstaedt using muse2kern.
!!!EED: Craig Stuart Sapp
!!!EEV: 2024/03/31
!!!filter-keyboard: satb2gs
!!!title: @{OTL} (@{SCT})
